apps/scalable/elisa.svg

<svg xmlns="http://www.w3.org/2000/svg" style="isolation:isolate" width="256" height="256"><defs><filter id="a" width="270.648" height="254.338" x="-7.32" y="2.95" filterUnits="userSpaceOnUse"><feGaussianBlur xmlns="http://www.w3.org/2000/svg" in="SourceGraphic" stdDeviation="4.294"/><feOffset xmlns="http://www.w3.org/2000/svg" dy="4" result="pf_100_offsetBlur"/><feFlood xmlns="http://www.w3.org/2000/svg" flood-opacity=".4"/><feComposite xmlns="http://www.w3.org/2000/svg" in2="pf_100_offsetBlur" operator="in" result="pf_100_dropShadow"/><feBlend xmlns="http://www.w3.org/2000/svg" in="SourceGraphic" in2="pf_100_dropShadow"/></filter></defs><path fill="#4D4D4D" d="M165.685 11.947c74.055 0 84.639 10.557 84.639 84.544v59.251c0 73.986-10.584 84.543-84.639 84.543h-75.37c-74.055 0-84.639-10.557-84.639-84.543V96.491c0-73.987 10.584-84.544 84.639-84.544h75.37z" filter="url(#a)"/><path fill="#666" d="M33.313 233.525c1.831.778 3.715 1.517 5.799 2.137 2.472.735 5.127 1.364 7.978 1.9 2.852.536 5.9.978 9.157 1.342 3.256.363 6.722.647 10.41.863 7.376.433 15.641.598 24.898.598h75.371c9.258 0 17.522-.165 24.899-.598 3.688-.216 7.153-.5 10.41-.863 3.257-.364 6.305-.806 9.156-1.342 2.851-.536 5.507-1.165 7.979-1.9 2.471-.735 4.758-1.576 6.877-2.536.343-.155.615-.363.949-.525l-19.983-34.855-154.211.289-19.689 35.49z" opacity=".4"/><g opacity=".8"><linearGradient id="b" x1=".51" x2=".51" y1="-.002" y2="1.007" gradientTransform="matrix(201.57 0 0 123.889 28.456 51.332)" gradientUnits="userSpaceOnUse"><stop offset="0%" stop-color="#fff"/><stop offset="17.6%" stop-color="#85dca8"/><stop offset="17.6%" stop-color="#fff"/><stop offset="29.6%" stop-color="#8acaa4"/><stop offset="29.6%" stop-color="#fff"/><stop offset="42.4%" stop-color="#fff"/><stop offset="42.4%" stop-color="#85dca8"/><stop offset="54.449%" stop-color="#87d8a8"/><stop offset="54.449%" stop-color="#ecf6f0"/><stop offset="64%" stop-color="#ecf6f0"/><stop offset="64%" stop-color="#5ac083"/><stop offset="71.078%" stop-color="#4cb28a"/><stop offset="85.598%" stop-color="#41a692"/><stop offset="100%" stop-color="#2d919f"/></linearGradient><path fill="url(#b)" d="M38.456 51.332c-5.54 0-10 4.46-10 10V165.22c0 5.54 4.46 10 10 10h181.57c5.54 0 10-4.46 10-10V61.332c0-5.54-4.46-10-10-10H38.456z"/></g><circle fill="#2C2C2C" fill-opacity=".518" r="1" transform="translate(28.768 37.277) scale(5.642)" vector-effect="non-scaling-stroke"/><circle fill="#2C2C2C" fill-opacity=".518" r="1" transform="translate(227.232 37.277) scale(5.642)" vector-effect="non-scaling-stroke"/><circle fill="#2C2C2C" fill-opacity=".518" r="1" transform="translate(227.232 211.969) scale(5.642)" vector-effect="non-scaling-stroke"/><circle fill="#2C2C2C" fill-opacity=".518" r="1" transform="translate(29.431 211.969) scale(5.642)" vector-effect="non-scaling-stroke"/><circle fill="#333" r="1" transform="translate(164.839 207.986) scale(5.642)" vector-effect="non-scaling-stroke"/><ellipse fill="#333" rx="1" ry="1" transform="matrix(4.314 0 0 4.978 191.389 214.624)" vector-effect="non-scaling-stroke"/><circle fill="#333" r="1" transform="matrix(-5.642 0 0 5.642 88.506 207.986)" vector-effect="non-scaling-stroke"/><ellipse fill="#333" rx="1" ry="1" transform="matrix(-4.314 0 0 4.978 61.956 214.624)" vector-effect="non-scaling-stroke"/><path fill="#4D4D4D" d="M59.229 86.277h140.375c6.244 0 11.313 5.069 11.313 11.312v22.625c0 6.244-5.069 11.313-11.313 11.313H59.229c-6.244 0-11.312-5.069-11.312-11.313V97.589c0-6.243 5.068-11.312 11.312-11.312z"/><path fill="#333" d="M59.229 86.277h57.438c7.083 15.25 6.676 30.343-1.25 45.25H59.229c-6.244 0-11.312-5.069-11.312-11.313V97.589c0-6.243 5.068-11.312 11.312-11.312zM199.375 86.277h-57.438c-7.083 15.25-6.676 30.343 1.25 45.25h56.188c6.243 0 11.312-5.069 11.312-11.313V97.589c0-6.243-5.069-11.312-11.312-11.312z"/><g fill="#F7F7F7" fill-rule="evenodd"><path d="M50.042 108.902c0-11.867 9.633-21.5 21.5-21.5 11.866 0 21.5 9.633 21.5 21.5 0 11.866-9.634 21.5-21.5 21.5-11.867 0-21.5-9.634-21.5-21.5zm5.995.005c0-4.11 1.64-8.06 4.54-10.97 2.91-2.9 6.86-4.53 10.96-4.53 4.11 0 8.06 1.63 10.97 4.53 2.9 2.91 4.53 6.86 4.53 10.96 0 4.11-1.63 8.06-4.53 10.97-2.91 2.9-6.86 4.54-10.97 4.54-4.1 0-8.05-1.64-10.96-4.54-2.9-2.91-4.54-6.86-4.53-10.97"/><path d="M55.045 106.152h2.806c1.071 0 1.941.869 1.941 1.94v1.744c0 1.071-.87 1.941-1.941 1.941h-2.806a1.942 1.942 0 0 1-1.941-1.941v-1.744c0-1.071.87-1.94 1.941-1.94zm30.312-.063h2.806c1.071 0 1.941.87 1.941 1.941v1.743c0 1.071-.87 1.941-1.941 1.941h-2.806c-1.071 0-1.94-.87-1.94-1.941v-1.743c0-1.071.869-1.941 1.94-1.941zM74.385 92.373v2.807a1.94 1.94 0 0 1-1.94 1.94h-1.744a1.941 1.941 0 0 1-1.941-1.94v-2.807c0-1.071.87-1.94 1.941-1.94h1.744a1.94 1.94 0 0 1 1.94 1.94zm.063 30.313v2.806c0 1.071-.87 1.941-1.941 1.941h-1.744c-1.071 0-1.94-.87-1.94-1.941v-2.806c0-1.071.869-1.941 1.94-1.941h1.744c1.071 0 1.941.87 1.941 1.941zm10.784-23.562l-1.974 1.994a1.942 1.942 0 0 1-2.745.013l-1.239-1.227a1.94 1.94 0 0 1-.013-2.744l1.974-1.994a1.943 1.943 0 0 1 2.745-.014l1.239 1.227c.761.754.767 1.984.013 2.745zm-21.285 21.582l-1.974 1.994a1.942 1.942 0 0 1-2.745.013l-1.239-1.227a1.94 1.94 0 0 1-.013-2.744l1.974-1.994a1.942 1.942 0 0 1 2.745-.013l1.239 1.227a1.94 1.94 0 0 1 .013 2.744zm-5.971-21.582l1.974 1.994a1.942 1.942 0 0 0 2.745.013l1.239-1.227a1.94 1.94 0 0 0 .013-2.744l-1.974-1.994a1.943 1.943 0 0 0-2.745-.014l-1.239 1.227a1.942 1.942 0 0 0-.013 2.745zm21.285 21.582l1.974 1.994a1.942 1.942 0 0 0 2.745.013l1.239-1.227a1.94 1.94 0 0 0 .013-2.744l-1.974-1.994a1.942 1.942 0 0 0-2.745-.013l-1.239 1.227a1.94 1.94 0 0 0-.013 2.744z"/></g><g fill="#F7F7F7" fill-rule="evenodd"><path d="M166.042 108.902c0-11.867 9.633-21.5 21.5-21.5 11.866 0 21.5 9.633 21.5 21.5 0 11.866-9.634 21.5-21.5 21.5-11.867 0-21.5-9.634-21.5-21.5zm5.995.005c0-4.11 1.64-8.06 4.54-10.97 2.91-2.9 6.86-4.53 10.96-4.53 4.11 0 8.06 1.63 10.97 4.53 2.9 2.91 4.53 6.86 4.53 10.96 0 4.11-1.63 8.06-4.53 10.97-2.91 2.9-6.86 4.54-10.97 4.54-4.1 0-8.05-1.64-10.96-4.54-2.9-2.91-4.54-6.86-4.53-10.97"/><path d="M171.045 106.152h2.806c1.071 0 1.941.869 1.941 1.94v1.744c0 1.071-.87 1.941-1.941 1.941h-2.806a1.942 1.942 0 0 1-1.941-1.941v-1.744c0-1.071.87-1.94 1.941-1.94zm30.312-.063h2.806c1.071 0 1.941.87 1.941 1.941v1.743c0 1.071-.87 1.941-1.941 1.941h-2.806c-1.071 0-1.94-.87-1.94-1.941v-1.743c0-1.071.869-1.941 1.94-1.941zm-10.972-13.716v2.807a1.94 1.94 0 0 1-1.94 1.94h-1.744a1.941 1.941 0 0 1-1.941-1.94v-2.807c0-1.071.87-1.94 1.941-1.94h1.744a1.94 1.94 0 0 1 1.94 1.94zm.063 30.313v2.806c0 1.071-.87 1.941-1.941 1.941h-1.744c-1.071 0-1.94-.87-1.94-1.941v-2.806c0-1.071.869-1.941 1.94-1.941h1.744c1.071 0 1.941.87 1.941 1.941zm10.784-23.562l-1.974 1.994a1.942 1.942 0 0 1-2.745.013l-1.239-1.227a1.94 1.94 0 0 1-.013-2.744l1.974-1.994a1.943 1.943 0 0 1 2.745-.014l1.239 1.227c.761.754.767 1.984.013 2.745zm-21.285 21.582l-1.974 1.994a1.942 1.942 0 0 1-2.745.013l-1.239-1.227a1.94 1.94 0 0 1-.013-2.744l1.974-1.994a1.942 1.942 0 0 1 2.745-.013l1.239 1.227a1.94 1.94 0 0 1 .013 2.744zm-5.971-21.582l1.974 1.994a1.942 1.942 0 0 0 2.745.013l1.239-1.227a1.94 1.94 0 0 0 .013-2.744l-1.974-1.994a1.943 1.943 0 0 0-2.745-.014l-1.239 1.227a1.942 1.942 0 0 0-.013 2.745zm21.285 21.582l1.974 1.994a1.942 1.942 0 0 0 2.745.013l1.239-1.227a1.94 1.94 0 0 0 .013-2.744l-1.974-1.994a1.942 1.942 0 0 0-2.745-.013l-1.239 1.227a1.94 1.94 0 0 0-.013 2.744z"/></g><g opacity=".4"><linearGradient id="c" x1=".517" x2=".517" y2="1"><stop offset="0%" stop-color="#fff"/><stop offset="12.5%" stop-opacity=".098" stop-color="#fff"/><stop offset="92.5%" stop-opacity=".098"/><stop offset="100%" stop-opacity=".498"/></linearGradient><path fill="none" stroke="url(#c)" stroke-linecap="round" stroke-linejoin="round" stroke-width="4.077" d="M165.685 11.947c74.055 0 84.639 10.557 84.639 84.544v59.251c0 73.986-10.584 84.543-84.639 84.543h-75.37c-74.055 0-84.639-10.557-84.639-84.543V96.491c0-73.987 10.584-84.544 84.639-84.544h75.37z" vector-effect="non-scaling-stroke"/></g></svg>

<svg xmlns="http://www.w3.org/2000/svg" style="isolation:isolate" width="256" height="256" viewBox="0 0 256 256">
 <defs>
  <filter id="gJmqFKjSknWUnZcFznIM2FIA8iCtv6Pw" width="270.648" height="254.338" x="-7.32" y="2.95" filterUnits="userSpaceOnUse">
   <feGaussianBlur xmlns="http://www.w3.org/2000/svg" in="SourceGraphic" stdDeviation="4.294"/>
   <feOffset xmlns="http://www.w3.org/2000/svg" dx="0" dy="4" result="pf_100_offsetBlur"/>
   <feFlood xmlns="http://www.w3.org/2000/svg" flood-opacity=".4"/>
   <feComposite xmlns="http://www.w3.org/2000/svg" in2="pf_100_offsetBlur" operator="in" result="pf_100_dropShadow"/>
   <feBlend xmlns="http://www.w3.org/2000/svg" in="SourceGraphic" in2="pf_100_dropShadow" mode="normal"/>
  </filter>
 </defs>
 <g filter="url(#gJmqFKjSknWUnZcFznIM2FIA8iCtv6Pw)">
  <path fill="#4D4D4D" d="M 165.685 11.947 C 239.74 11.947 250.324 22.504 250.324 96.491 L 250.324 155.742 C 250.324 229.728 239.74 240.285 165.685 240.285 L 90.315 240.285 C 16.26 240.285 5.676 229.728 5.676 155.742 L 5.676 96.491 C 5.676 22.504 16.26 11.947 90.315 11.947 L 165.685 11.947 Z"/>
 </g>
 <g>
  <g opacity=".4">
   <path fill="#666666" d="M 33.313 233.525 C 35.144 234.303 37.028 235.042 39.112 235.662 C 41.584 236.397 44.239 237.026 47.09 237.562 C 49.942 238.098 52.99 238.54 56.247 238.904 C 59.503 239.267 62.969 239.551 66.657 239.767 C 74.033 240.2 82.298 240.365 91.555 240.365 L 166.926 240.365 C 176.184 240.365 184.448 240.2 191.825 239.767 C 195.513 239.551 198.978 239.267 202.235 238.904 C 205.492 238.54 208.54 238.098 211.391 237.562 C 214.242 237.026 216.898 236.397 219.37 235.662 C 221.841 234.927 224.128 234.086 226.247 233.126 C 226.59 232.971 226.862 232.763 227.196 232.601 L 207.213 197.746 L 53.002 198.035 L 33.313 233.525 Z"/>
  </g>
  <g opacity=".8">
   <linearGradient id="_lgradient_157" x1=".51" x2=".51" y1="-.002" y2="1.007" gradientTransform="matrix(201.57,0,0,123.889,28.456,51.332)" gradientUnits="userSpaceOnUse">
    <stop offset="0%" style="stop-color:rgb(255,255,255)"/>
    <stop offset="17.6%" style="stop-color:rgb(133,220,168)"/>
    <stop offset="17.6%" style="stop-color:rgb(255,255,255)"/>
    <stop offset="29.6%" style="stop-color:rgb(138,202,164)"/>
    <stop offset="29.6%" style="stop-color:rgb(255,255,255)"/>
    <stop offset="42.4%" style="stop-color:rgb(255,255,255)"/>
    <stop offset="42.4%" style="stop-color:rgb(133,220,168)"/>
    <stop offset="54.449%" style="stop-color:rgb(135,216,168)"/>
    <stop offset="54.449%" style="stop-color:rgb(236,246,240)"/>
    <stop offset="64%" style="stop-color:rgb(236,246,240)"/>
    <stop offset="64%" style="stop-color:rgb(90,192,131)"/>
    <stop offset="71.078%" style="stop-color:rgb(76,178,138)"/>
    <stop offset="85.598%" style="stop-color:rgb(65,166,146)"/>
    <stop offset="100%" style="stop-color:rgb(45,145,159)"/>
   </linearGradient>
   <path fill="url(#_lgradient_157)" d="M 38.456 51.332 C 32.916 51.332 28.456 55.792 28.456 61.332 L 28.456 165.22 C 28.456 170.76 32.916 175.22 38.456 175.22 L 220.026 175.22 C 225.566 175.22 230.026 170.76 230.026 165.22 L 230.026 61.332 C 230.026 55.792 225.566 51.332 220.026 51.332 L 38.456 51.332 Z"/>
  </g>
  <circle fill="#2C2C2C" fill-opacity=".518" cx="0" cy="0" r="1" transform="matrix(5.642,0,0,5.642,28.768,37.277)" vector-effect="non-scaling-stroke"/>
  <circle fill="#2C2C2C" fill-opacity=".518" cx="0" cy="0" r="1" transform="matrix(5.642,0,0,5.642,227.232,37.277)" vector-effect="non-scaling-stroke"/>
  <circle fill="#2C2C2C" fill-opacity=".518" cx="0" cy="0" r="1" transform="matrix(5.642,0,0,5.642,227.232,211.969)" vector-effect="non-scaling-stroke"/>
  <circle fill="#2C2C2C" fill-opacity=".518" cx="0" cy="0" r="1" transform="matrix(5.642,0,0,5.642,29.431,211.969)" vector-effect="non-scaling-stroke"/>
  <circle fill="#333333" cx="0" cy="0" r="1" transform="matrix(5.642,0,0,5.642,164.839,207.986)" vector-effect="non-scaling-stroke"/>
  <ellipse fill="#333333" cx="0" cy="0" rx="1" ry="1" transform="matrix(4.314,0,0,4.978,191.389,214.624)" vector-effect="non-scaling-stroke"/>
  <circle fill="#333333" cx="0" cy="0" r="1" transform="matrix(-5.642,0,0,5.642,88.506,207.986)" vector-effect="non-scaling-stroke"/>
  <ellipse fill="#333333" cx="0" cy="0" rx="1" ry="1" transform="matrix(-4.314,0,0,4.978,61.956,214.624)" vector-effect="non-scaling-stroke"/>
  <path fill="#4D4D4D" d="M 59.229 86.277 L 199.604 86.277 C 205.848 86.277 210.917 91.346 210.917 97.589 L 210.917 120.214 C 210.917 126.458 205.848 131.527 199.604 131.527 L 59.229 131.527 C 52.985 131.527 47.917 126.458 47.917 120.214 L 47.917 97.589 C 47.917 91.346 52.985 86.277 59.229 86.277 Z"/>
  <path fill="#333333" d="M 59.229 86.277 L 116.667 86.277 C 123.75 101.527 123.343 116.62 115.417 131.527 L 59.229 131.527 C 52.985 131.527 47.917 126.458 47.917 120.214 L 47.917 97.589 C 47.917 91.346 52.985 86.277 59.229 86.277 Z"/>
  <path fill="#333333" d="M 199.375 86.277 L 141.937 86.277 C 134.854 101.527 135.261 116.62 143.187 131.527 L 199.375 131.527 C 205.618 131.527 210.687 126.458 210.687 120.214 L 210.687 97.589 C 210.687 91.346 205.618 86.277 199.375 86.277 Z"/>
  <g>
   <path fill="#F7F7F7" fill-rule="evenodd" d="M 50.042 108.902 C 50.042 97.035 59.675 87.402 71.542 87.402 C 83.408 87.402 93.042 97.035 93.042 108.902 C 93.042 120.768 83.408 130.402 71.542 130.402 C 59.675 130.402 50.042 120.768 50.042 108.902 Z M 56.037 108.907 C 56.037 104.797 57.677 100.847 60.577 97.937 C 63.487 95.037 67.437 93.407 71.537 93.407 C 75.647 93.407 79.597 95.037 82.507 97.937 C 85.407 100.847 87.037 104.797 87.037 108.897 C 87.037 113.007 85.407 116.957 82.507 119.867 C 79.597 122.767 75.647 124.407 71.537 124.407 C 67.437 124.407 63.487 122.767 60.577 119.867 C 57.677 116.957 56.037 113.007 56.047 108.897"/>
   <path fill="#F7F7F7" fill-rule="evenodd" d="M 55.045 106.152 L 57.851 106.152 C 58.922 106.152 59.792 107.021 59.792 108.092 L 59.792 109.836 C 59.792 110.907 58.922 111.777 57.851 111.777 L 55.045 111.777 C 53.974 111.777 53.104 110.907 53.104 109.836 L 53.104 108.092 C 53.104 107.021 53.974 106.152 55.045 106.152 L 55.045 106.152 L 55.045 106.152 L 55.045 106.152 L 55.045 106.152 L 55.045 106.152 L 55.045 106.152 Z M 85.357 106.089 L 88.163 106.089 C 89.234 106.089 90.104 106.959 90.104 108.03 L 90.104 109.773 C 90.104 110.844 89.234 111.714 88.163 111.714 L 85.357 111.714 C 84.286 111.714 83.417 110.844 83.417 109.773 L 83.417 108.03 C 83.417 106.959 84.286 106.089 85.357 106.089 L 85.357 106.089 L 85.357 106.089 L 85.357 106.089 L 85.357 106.089 L 85.357 106.089 L 85.357 106.089 Z M 74.385 92.373 L 74.385 95.18 C 74.385 96.251 73.516 97.12 72.445 97.12 L 70.701 97.12 C 69.63 97.12 68.76 96.251 68.76 95.18 L 68.76 92.373 C 68.76 91.302 69.63 90.433 70.701 90.433 L 72.445 90.433 C 73.516 90.433 74.385 91.302 74.385 92.373 L 74.385 92.373 L 74.385 92.373 L 74.385 92.373 L 74.385 92.373 L 74.385 92.373 Z M 74.448 122.686 L 74.448 125.492 C 74.448 126.563 73.578 127.433 72.507 127.433 L 70.763 127.433 C 69.692 127.433 68.823 126.563 68.823 125.492 L 68.823 122.686 C 68.823 121.615 69.692 120.745 70.763 120.745 L 72.507 120.745 C 73.578 120.745 74.448 121.615 74.448 122.686 L 74.448 122.686 L 74.448 122.686 L 74.448 122.686 L 74.448 122.686 Z M 85.232 99.124 L 83.258 101.118 C 82.504 101.879 81.274 101.885 80.513 101.131 L 79.274 99.904 C 78.513 99.15 78.507 97.921 79.261 97.16 L 81.235 95.166 C 81.989 94.405 83.219 94.399 83.98 95.152 L 85.219 96.379 C 85.98 97.133 85.986 98.363 85.232 99.124 L 85.232 99.124 L 85.232 99.124 L 85.232 99.124 Z M 63.947 120.706 L 61.973 122.7 C 61.219 123.461 59.989 123.467 59.228 122.713 L 57.989 121.486 C 57.228 120.733 57.222 119.503 57.976 118.742 L 59.95 116.748 C 60.704 115.987 61.934 115.981 62.695 116.735 L 63.934 117.962 C 64.695 118.715 64.701 119.945 63.947 120.706 L 63.947 120.706 L 63.947 120.706 Z M 57.976 99.124 L 59.95 101.118 C 60.704 101.879 61.934 101.885 62.695 101.131 L 63.934 99.904 C 64.695 99.15 64.701 97.921 63.947 97.16 L 61.973 95.166 C 61.219 94.405 59.989 94.399 59.228 95.152 L 57.989 96.379 C 57.228 97.133 57.222 98.363 57.976 99.124 L 57.976 99.124 Z M 79.261 120.706 L 81.235 122.7 C 81.989 123.461 83.219 123.467 83.98 122.713 L 85.219 121.486 C 85.98 120.733 85.986 119.503 85.232 118.742 L 83.258 116.748 C 82.504 115.987 81.274 115.981 80.513 116.735 L 79.274 117.962 C 78.513 118.715 78.507 119.945 79.261 120.706 Z"/>
  </g>
  <g>
   <path fill="#F7F7F7" fill-rule="evenodd" d="M 166.042 108.902 C 166.042 97.035 175.675 87.402 187.542 87.402 C 199.408 87.402 209.042 97.035 209.042 108.902 C 209.042 120.768 199.408 130.402 187.542 130.402 C 175.675 130.402 166.042 120.768 166.042 108.902 Z M 172.037 108.907 C 172.037 104.797 173.677 100.847 176.577 97.937 C 179.487 95.037 183.437 93.407 187.537 93.407 C 191.647 93.407 195.597 95.037 198.507 97.937 C 201.407 100.847 203.037 104.797 203.037 108.897 C 203.037 113.007 201.407 116.957 198.507 119.867 C 195.597 122.767 191.647 124.407 187.537 124.407 C 183.437 124.407 179.487 122.767 176.577 119.867 C 173.677 116.957 172.037 113.007 172.047 108.897"/>
   <path fill="#F7F7F7" fill-rule="evenodd" d="M 171.045 106.152 L 173.851 106.152 C 174.922 106.152 175.792 107.021 175.792 108.092 L 175.792 109.836 C 175.792 110.907 174.922 111.777 173.851 111.777 L 171.045 111.777 C 169.974 111.777 169.104 110.907 169.104 109.836 L 169.104 108.092 C 169.104 107.021 169.974 106.152 171.045 106.152 L 171.045 106.152 L 171.045 106.152 L 171.045 106.152 L 171.045 106.152 L 171.045 106.152 L 171.045 106.152 Z M 201.357 106.089 L 204.163 106.089 C 205.234 106.089 206.104 106.959 206.104 108.03 L 206.104 109.773 C 206.104 110.844 205.234 111.714 204.163 111.714 L 201.357 111.714 C 200.286 111.714 199.417 110.844 199.417 109.773 L 199.417 108.03 C 199.417 106.959 200.286 106.089 201.357 106.089 L 201.357 106.089 L 201.357 106.089 L 201.357 106.089 L 201.357 106.089 L 201.357 106.089 L 201.357 106.089 Z M 190.385 92.373 L 190.385 95.18 C 190.385 96.251 189.516 97.12 188.445 97.12 L 186.701 97.12 C 185.63 97.12 184.76 96.251 184.76 95.18 L 184.76 92.373 C 184.76 91.302 185.63 90.433 186.701 90.433 L 188.445 90.433 C 189.516 90.433 190.385 91.302 190.385 92.373 L 190.385 92.373 L 190.385 92.373 L 190.385 92.373 L 190.385 92.373 L 190.385 92.373 Z M 190.448 122.686 L 190.448 125.492 C 190.448 126.563 189.578 127.433 188.507 127.433 L 186.763 127.433 C 185.692 127.433 184.823 126.563 184.823 125.492 L 184.823 122.686 C 184.823 121.615 185.692 120.745 186.763 120.745 L 188.507 120.745 C 189.578 120.745 190.448 121.615 190.448 122.686 L 190.448 122.686 L 190.448 122.686 L 190.448 122.686 L 190.448 122.686 Z M 201.232 99.124 L 199.258 101.118 C 198.504 101.879 197.274 101.885 196.513 101.131 L 195.274 99.904 C 194.513 99.15 194.507 97.921 195.261 97.16 L 197.235 95.166 C 197.989 94.405 199.219 94.399 199.98 95.152 L 201.219 96.379 C 201.98 97.133 201.986 98.363 201.232 99.124 L 201.232 99.124 L 201.232 99.124 L 201.232 99.124 Z M 179.947 120.706 L 177.973 122.7 C 177.219 123.461 175.989 123.467 175.228 122.713 L 173.989 121.486 C 173.228 120.733 173.222 119.503 173.976 118.742 L 175.95 116.748 C 176.704 115.987 177.934 115.981 178.695 116.735 L 179.934 117.962 C 180.695 118.715 180.701 119.945 179.947 120.706 L 179.947 120.706 L 179.947 120.706 Z M 173.976 99.124 L 175.95 101.118 C 176.704 101.879 177.934 101.885 178.695 101.131 L 179.934 99.904 C 180.695 99.15 180.701 97.921 179.947 97.16 L 177.973 95.166 C 177.219 94.405 175.989 94.399 175.228 95.152 L 173.989 96.379 C 173.228 97.133 173.222 98.363 173.976 99.124 L 173.976 99.124 Z M 195.261 120.706 L 197.235 122.7 C 197.989 123.461 199.219 123.467 199.98 122.713 L 201.219 121.486 C 201.98 120.733 201.986 119.503 201.232 118.742 L 199.258 116.748 C 198.504 115.987 197.274 115.981 196.513 116.735 L 195.274 117.962 C 194.513 118.715 194.507 119.945 195.261 120.706 Z"/>
  </g>
 </g>
 <g opacity=".4">
  <linearGradient id="_lgradient_158" x1=".517" x2=".517" y1="0" y2="1">
   <stop offset="0%" style="stop-color:rgb(255,255,255)"/>
   <stop offset="12.5%" stop-opacity=".098" style="stop-color:rgb(255,255,255)"/>
   <stop offset="92.5%" stop-opacity=".098" style="stop-color:rgb(0,0,0)"/>
   <stop offset="100%" stop-opacity=".498" style="stop-color:rgb(0,0,0)"/>
  </linearGradient>
  <path fill="none" stroke="url(#_lgradient_158)" stroke-linecap="round" stroke-linejoin="round" stroke-width="4.077" d="M 165.685 11.947 C 239.74 11.947 250.324 22.504 250.324 96.491 L 250.324 155.742 C 250.324 229.728 239.74 240.285 165.685 240.285 L 90.315 240.285 C 16.26 240.285 5.676 229.728 5.676 155.742 L 5.676 96.491 C 5.676 22.504 16.26 11.947 90.315 11.947 L 165.685 11.947 Z" vector-effect="non-scaling-stroke"/>
 </g>
</svg>
